X: 30483
T: NEW RIGGED SHIP
C:
%R: jig
N: This is version 2, for ABC software that understands voice overlays.
B: Elias Howe "The Musician's Companion" Part 3 1844 p.48 #3
S: http://imslp.org/wiki/The_Musician's_Companion_(Howe,_Elias)
S: https://archive.org/stream/firstthirdpartof03howe/#page/66/mode/1up
Z: 2015 John Chambers <jc:trillian.mit.edu>
M: 6/8
L: 1/8
K: D
% - - - - - - - - - - - - - - - - - - - - - - - - -
A |\
d2d Td2f | d2d Td2f | ecA A2c | ecA ABc |\
d2d Td2f | x3 d2f & d2d ecA | Bcd ecA | d3- d2 :|
|: f/g/ |\
a2f a2f | d2d dfa | b2g b2g | Te2e efg |\
a2f a2f | Td2d ecA | B>cd ecA | d3- d2 :|
|: f/g/ |\
agf agf | d>ed dfa | bag bag | e>Tfe efg |\
agf agf | dfd ecA | Bcd ecA | cAF D3 :|
% - - - - - - - - - - - - - - - - - - - - - - - - -
